icons/list-ordered-24.svg

<svg width="24" height="24" viewBox="0 0 24 24" xmlns="http://www.w3.org/2000/svg">
  <path d="M3.60385 3.08875C3.84772 3.21926 3.99996 3.4734 3.99996 3.75V8.5H4.74996C5.16417 8.5 5.49996 8.83579 5.49996 9.25C5.49996 9.66421 5.16417 10 4.74996 10H1.74996C1.33574 10 0.999958 9.66421 0.999958 9.25C0.999958 8.83579 1.33574 8.5 1.74996 8.5H2.49996V5.15139L2.16598 5.37404C1.82134 5.6038 1.35568 5.51067 1.12592 5.16603C0.896156 4.82138 0.989286 4.35573 1.33393 4.12596L2.83393 3.12596C3.06407 2.97254 3.35998 2.95823 3.60385 3.08875Z"/>
  <path d="M8.75 5.5C8.33579 5.5 8 5.83579 8 6.25C8 6.66421 8.33579 7 8.75 7H20.25C20.6642 7 21 6.66421 21 6.25C21 5.83579 20.6642 5.5 20.25 5.5H8.75Z"/>
  <path d="M8.75 11.5C8.33579 11.5 8 11.8358 8 12.25C8 12.6642 8.33579 13 8.75 13H20.25C20.6642 13 21 12.6642 21 12.25C21 11.8358 20.6642 11.5 20.25 11.5H8.75Z"/>
  <path d="M8.75 17.5C8.33579 17.5 8 17.8358 8 18.25C8 18.6642 8.33579 19 8.75 19H20.25C20.6642 19 21 18.6642 21 18.25C21 17.8358 20.6642 17.5 20.25 17.5H8.75Z"/>
  <path d="M5.5 15.75C5.5 15.0465 5.22873 14.4637 4.77954 14.0644C4.34414 13.6774 3.78477 13.4999 3.24988 13.5C2.71514 13.5001 2.15586 13.6775 1.72048 14.0645C1.27129 14.4638 1 15.0465 1 15.75C1 16.1642 1.33579 16.5 1.75 16.5C2.16421 16.5 2.5 16.1642 2.5 15.75C2.5 15.4536 2.60371 15.2864 2.71702 15.1856C2.84414 15.0726 3.03486 15 3.25012 15C3.46523 15 3.65586 15.0725 3.78296 15.1855C3.89627 15.2862 4 15.4535 4 15.75C4 16.0825 3.93122 16.2291 3.78935 16.4065C3.69814 16.5205 3.5738 16.647 3.38732 16.8257C3.3416 16.8695 3.29222 16.9164 3.2397 16.9663C3.08837 17.11 2.91069 17.2787 2.71967 17.4697L1.21967 18.9697C1.07902 19.1103 1 19.3011 1 19.5V19.7498C1 20.164 1.33579 20.4998 1.75 20.4998H5C5.41421 20.4998 5.75 20.164 5.75 19.7498C5.75 19.3355 5.41421 18.9998 5 18.9998H3.3109L3.78033 18.5303C3.95641 18.3542 4.11259 18.206 4.26053 18.0655C4.31627 18.0126 4.37115 17.9605 4.42518 17.9087C4.6137 17.728 4.80186 17.542 4.96065 17.3435C5.31878 16.8959 5.5 16.4175 5.5 15.75Z"/>
</svg>

<svg xmlns="http://www.w3.org/2000/svg" width="24" height="24" viewBox="0 0 24 24"><path d="M3.604 3.089A.75.75 0 014 3.75V8.5h.75a.75.75 0 010 1.5h-3a.75.75 0 110-1.5h.75V5.151l-.334.223a.75.75 0 01-.832-1.248l1.5-1a.75.75 0 01.77-.037zM8.75 5.5a.75.75 0 000 1.5h11.5a.75.75 0 000-1.5H8.75zm0 6a.75.75 0 000 1.5h11.5a.75.75 0 000-1.5H8.75zm0 6a.75.75 0 000 1.5h11.5a.75.75 0 000-1.5H8.75zM5.5 15.75c0-.704-.271-1.286-.72-1.686a2.302 2.302 0 00-1.53-.564c-.535 0-1.094.178-1.53.565-.449.399-.72.982-.72 1.685a.75.75 0 001.5 0c0-.296.104-.464.217-.564A.805.805 0 013.25 15c.215 0 .406.072.533.185.113.101.217.268.217.565 0 .332-.069.48-.21.657-.092.113-.216.24-.403.419l-.147.14c-.152.144-.33.313-.52.504l-1.5 1.5a.75.75 0 00-.22.53v.25c0 .414.336.75.75.75H5A.75.75 0 005 19H3.31l.47-.47c.176-.176.333-.324.48-.465l.165-.156a5.98 5.98 0 00.536-.566c.358-.447.539-.925.539-1.593z"/></svg>
